X: 18
T: Camp Meeting on the Fourth of July
B: canberra pickers and fiddlers
B: tunes
M:C
L:1/8
R: march
Q: 1/4=100
K:D
V:1 
DE |: "D"F2F2 FE DF | A2B2 AF DE | F2F2 AB AF | "A"(ED) EF E2 DE | 
"D"F2F2 FE DF | A2B2 AF DE | F2F2 "A"F(D EF) |1 "D"D3 (ED2) DE:|2 "D"D3(ED2) (3ABc ||
|: "D"d2 de (dc) BA | "G"B2B2 "D"(AF) A2 | d2 de (dc) BA | "G"(BA) (Bc)B2 (3ABc | 
"D"d2 de (dc) BA | "G"B2B2 "D"(AF) A2 | "A"A2 (AB) (AF E2) |1 "D"D3(ED2) (3ABc :|2 "D"D3(ED2) DE || 
% abcbook-tune_id 63ae8f1c4aee520db6f70913
% abcbook-tune_composer_id 
% abcbook-link-0 https://www.youtube.com/watch?v=8f7MR_dTOTY
% abcbook-boost 14
% abcbook-difficulty 0
% abcbook-tags canberra pickers and fiddlers,old time tunes,steve ryan,© free
% abcbook-tablature 
% abcbook-transpose 
% abcbook-tuning DDAD
% abcbook-lastupdated 1675314318441
% abcbook-src-url https://tunebook.net/scrape/tunes.abc
% abcbook-soundfonts 
% abcbook-repeats 1


